X:725
T: O'Flynn's Fancy
T: Rogha U\'i Fhloinn
S: B.Breathnach: "Ceol Rince na hEireann" II/198
Z: B.Black
L: 1/8
M: 4/4
R: reel
K: G
dBGA B2 GB|dBGA BAAB|dBGA BABd|1 efge dB B2 :|2\
efge dBB||
d|g2 g2 a3f|gage dBBd|g2 g2 a2 ga|bage d2 Bd|
g2 gb abaf|gage dBBA|GABc d2 ef|gage dB B2 ||

